usr/share/icons/biglinux-icons-material-dark/22/actions/view-sort-descending-name.svg

<svg xmlns="http://www.w3.org/2000/svg" viewBox="0 0 22 22">
  <defs id="defs3051">
    <style type="text/css" id="current-color-scheme">
      .ColorScheme-Text {
        color:#dedede;
      }
      </style>
  </defs>
 <path 
    style="fill:currentColor;fill-opacity:1;stroke:none" 
    d="M 5.1113281 3 L 5.1113281 3.8144531 L 7.1835938 3.8144531 L 5 7.0683594 L 5 7.8007812 L 8.828125 7.8007812 L 8.828125 6.9492188 L 6.5820312 6.9492188 L 8.7558594 3.65625 L 8.7558594 3 L 5.1113281 3 z M 13 8.9921875 L 13 17.285156 L 10.707031 14.992188 L 10 15.699219 L 13.292969 18.992188 L 13.5 19.199219 L 13.707031 18.992188 L 17 15.699219 L 16.292969 14.992188 L 14 17.285156 L 14 8.9921875 L 13 8.9921875 z M 7.0957031 9 C 6.3124631 9.0182 5.7105975 9.1551088 5.2734375 9.3554688 L 5.5195312 10.255859 C 5.7290012 10.182959 6.5218511 9.9296875 6.9863281 9.9296875 L 7.0488281 9.9296875 C 7.6954581 9.9569875 7.7421875 10.192497 7.7421875 10.748047 L 7.7421875 10.966797 L 7.4042969 11.021484 C 5.8378069 11.249174 5 11.440388 5 12.642578 C 5 13.480468 5.6107106 14 6.4941406 14 C 7.1043406 14 7.5042305 13.744517 7.9140625 13.398438 L 8.0410156 13.908203 L 9.0078125 13.908203 L 9.0078125 10.539062 C 9.0078125 9.5099235 8.296026 9 7.203125 9 L 7.0957031 9 z M 7.7421875 11.677734 L 7.7421875 12.796875 C 7.4052175 13.024565 7.1500506 13.189453 6.7128906 13.189453 C 6.3212706 13.189453 6.1289062 12.943736 6.1289062 12.597656 C 6.1289062 11.941916 6.7030169 11.832602 7.4042969 11.732422 L 7.7421875 11.677734 z "
	class="ColorScheme-Text"
    />  
</svg>

<svg xmlns="http://www.w3.org/2000/svg" viewBox="0 0 22 22">
<defs id="defs3051">
<style id="current-color-scheme" type="text/css">
.ColorScheme-Text{color:#dedede}
</style>
</defs>
<path d="M5.111 3v.814h2.073L5 7.068v.733h3.828v-.852H6.582l2.174-3.293V3zM13 8.992v8.293l-2.293-2.293L10 15.7l3.293 3.293.207.207.207-.207L17 15.7l-.707-.707L14 17.285V8.992zM7.096 9c-.784.018-1.385.155-1.823.355l.247.9c.209-.072 1.002-.325 1.466-.325h.063c.646.027.693.262.693.818v.219l-.338.054C5.838 11.25 5 11.441 5 12.643 5 13.48 5.61 14 6.494 14c.61 0 1.01-.255 1.42-.602l.127.51h.967V10.54C9.008 9.51 8.296 9 7.203 9zm.646 2.678v1.119c-.337.228-.592.392-1.03.392-.39 0-.583-.245-.583-.591 0-.656.574-.765 1.275-.866z" class="ColorScheme-Text" style="fill:currentColor;fill-opacity:1;stroke:none"/>
</svg>
